source/img/patent-icon.svg

<svg width="145" height="110" viewBox="0 0 145 110" fill="none" xmlns="http://www.w3.org/2000/svg">
<path d="M143.71 55.1391C148.542 72.9401 139.446 84.5249 122.392 98.3702C116.139 103.739 98.4021 113.346 77.4823 108.825C51.3325 103.174 61.8495 91.0237 43.0898 74.0704C24.3302 57.117 41.3844 16.994 61.8495 8.23479C82.3145 -0.524445 106.19 -4.76278 122.392 8.23479C138.593 21.2324 138.878 37.3381 143.71 55.1391Z" fill="#F4FBFF"/>
<rect x="8.18555" y="21.6885" width="64.1189" height="78.4434" rx="2" fill="#FFC7DB"/>
<rect y="13.5034" width="64.1189" height="78.4434" rx="2" fill="#AAF0D1"/>
<rect x="10.2319" y="63.2979" width="6.82117" height="2.72847" rx="1" fill="#FF689E"/>
<rect x="10.2319" y="70.1191" width="6.82117" height="2.72847" rx="1" fill="#FF689E"/>
<rect x="10.2319" y="76.9404" width="6.82117" height="2.72847" rx="1" fill="#FF689E"/>
<rect x="25.2383" y="63.2979" width="27.2847" height="2.72847" rx="1" fill="white"/>
<rect x="25.2383" y="70.1191" width="27.2847" height="2.72847" rx="1" fill="white"/>
<rect x="25.2383" y="76.9404" width="27.2847" height="2.72847" rx="1" fill="white"/>
<mask id="mask0" mask-type="alpha" maskUnits="userSpaceOnUse" x="21" y="27" width="22" height="21">
<path fill-rule="evenodd" clip-rule="evenodd" d="M31.3312 27.1455C30.2266 27.1455 29.3312 28.0409 29.3312 29.1455V34.6489L23.8276 34.6489C22.7231 34.6489 21.8276 35.5443 21.8276 36.6489L21.8276 38.1058C21.8276 39.2104 22.7231 40.1058 23.8276 40.1058H29.3312V45.609C29.3312 46.7136 30.2266 47.609 31.3312 47.609H32.7881C33.8927 47.609 34.7881 46.7136 34.7881 45.609V40.1058H40.2911C41.3957 40.1058 42.2911 39.2104 42.2911 38.1058V36.6489C42.2911 35.5443 41.3957 34.6489 40.2911 34.6489L34.7881 34.6489V29.1455C34.7881 28.0409 33.8927 27.1455 32.7881 27.1455H31.3312Z" fill="#FFC7DB"/>
</mask>
<g mask="url(#mask0)">
<path fill-rule="evenodd" clip-rule="evenodd" d="M31.3312 27.1455C30.2266 27.1455 29.3312 28.0409 29.3312 29.1455V34.6489L23.8276 34.6489C22.7231 34.6489 21.8276 35.5443 21.8276 36.6489L21.8276 38.1058C21.8276 39.2104 22.7231 40.1058 23.8276 40.1058H29.3312V45.609C29.3312 46.7136 30.2266 47.609 31.3312 47.609H32.7881C33.8927 47.609 34.7881 46.7136 34.7881 45.609V40.1058H40.2911C41.3957 40.1058 42.2911 39.2104 42.2911 38.1058V36.6489C42.2911 35.5443 41.3957 34.6489 40.2911 34.6489L34.7881 34.6489V29.1455C34.7881 28.0409 33.8927 27.1455 32.7881 27.1455H31.3312Z" fill="#FF689E"/>
<rect x="20.4639" y="38.0596" width="10.9139" height="10.9139" rx="2" fill="#FFC7DB"/>
</g>
<path fill-rule="evenodd" clip-rule="evenodd" d="M14.3246 6C12.0643 6 10.2319 7.83236 10.2319 10.0927V19.6423C10.2319 21.9027 12.0643 23.735 14.3246 23.735C16.585 23.735 18.4173 21.9027 18.4173 19.6423V10.0927C18.4173 7.83236 16.585 6 14.3246 6ZM14.3244 8.04629C13.1942 8.04629 12.278 8.96248 12.278 10.0926V19.6423C12.278 20.7724 13.1942 21.6886 14.3244 21.6886C15.4545 21.6886 16.3707 20.7724 16.3707 19.6423V10.0926C16.3707 8.96248 15.4545 8.04629 14.3244 8.04629Z" fill="#FFC7DB"/>
<rect x="15.689" y="13.5034" width="3.41058" height="4.0927" fill="#AAF0D1"/>
<circle cx="17.3943" cy="17.5959" r="1.02317" fill="#FFC7DB"/>
</svg>

<svg width="145" height="110" fill="none" xmlns="http://www.w3.org/2000/svg"><path d="M143.71 55.14c4.832 17.8-4.264 29.385-21.318 43.23-6.253 5.369-23.99 14.976-44.91 10.455-26.15-5.651-15.633-17.801-34.392-34.755-18.76-16.953-1.706-57.076 18.76-65.835 20.464-8.76 44.34-12.998 60.542 0 16.201 12.997 16.486 29.103 21.318 46.904z" fill="#F4FBFF"/><rect x="8.186" y="21.689" width="64.119" height="78.443" rx="2" fill="#FFC7DB"/><rect y="13.503" width="64.119" height="78.443" rx="2" fill="#AAF0D1"/><rect x="10.232" y="63.298" width="6.821" height="2.728" rx="1" fill="#FF689E"/><rect x="10.232" y="70.119" width="6.821" height="2.728" rx="1" fill="#FF689E"/><rect x="10.232" y="76.94" width="6.821" height="2.728" rx="1" fill="#FF689E"/><rect x="25.238" y="63.298" width="27.285" height="2.728" rx="1" fill="#fff"/><rect x="25.238" y="70.119" width="27.285" height="2.728" rx="1" fill="#fff"/><rect x="25.238" y="76.94" width="27.285" height="2.728" rx="1" fill="#fff"/><mask id="a" maskUnits="userSpaceOnUse" x="21" y="27" width="22" height="21"><path fill-rule="evenodd" clip-rule="evenodd" d="M31.331 27.145a2 2 0 00-2 2v5.504h-5.503a2 2 0 00-2 2v1.457a2 2 0 002 2h5.503v5.503a2 2 0 002 2h1.457a2 2 0 002-2v-5.503h5.503a2 2 0 002-2v-1.457a2 2 0 00-2-2h-5.503v-5.504a2 2 0 00-2-2h-1.457z" fill="#FFC7DB"/></mask><g mask="url(#a)"><path fill-rule="evenodd" clip-rule="evenodd" d="M31.331 27.145a2 2 0 00-2 2v5.504h-5.503a2 2 0 00-2 2v1.457a2 2 0 002 2h5.503v5.503a2 2 0 002 2h1.457a2 2 0 002-2v-5.503h5.503a2 2 0 002-2v-1.457a2 2 0 00-2-2h-5.503v-5.504a2 2 0 00-2-2h-1.457z" fill="#FF689E"/><rect x="20.464" y="38.06" width="10.914" height="10.914" rx="2" fill="#FFC7DB"/></g><path fill-rule="evenodd" clip-rule="evenodd" d="M14.325 6a4.093 4.093 0 00-4.093 4.093v9.55a4.093 4.093 0 108.185 0v-9.55A4.093 4.093 0 0014.325 6zm0 2.046c-1.13 0-2.047.916-2.047 2.047v9.55a2.046 2.046 0 004.093 0v-9.55c0-1.13-.916-2.047-2.047-2.047z" fill="#FFC7DB"/><path fill="#AAF0D1" d="M15.689 13.503H19.1v4.093h-3.411z"/><circle cx="17.394" cy="17.596" r="1.023" fill="#FFC7DB"/></svg>
